X:1
T:Editor : Harrison Hackett Source : CPDL 24893 (editor Renato Calcaterra) Originally from Trent Codex TR92 128v Dr. Calcaterra's underlay for the alto has been retained, as have his suggested (midi) ficta. Modern note values have been adopted, and the piece has been lowered a tone for performance . Time signature, barring and phrasal slurs are editorial. The underlay for the lower two parts is suggested only. © Harrison Hackett  September 2015. May be copied distributed performed and modified under V4 of the CPDL licence.
T:Vidi Turbam Magnam
T:for Quintus Imperfectus
%%score [ 1 2 3 ]
L:1/8
Q:1/4=110
M:3/4
K:Bb
V:1 treble nm="Midi_41"
V:2 bass nm="Midi_41"
V:3 bass nm="Midi_41"
V:1
 z4 C2 | C4 (B,2 | E2) (F3 E) | (G2 F3 E) | G2 z2 G2 | %5
w: Vi-|di tur|* bam *|mag * *|nam, quam|
 GG G (_AB"^N./C. De Merques\n(15th century)"A |[M:3/4] G _A2 G F>E | G2) z2 z2 | F2 (F2 E2) | %9
w: de- nu- me- ra * *||re,|ne- mo *|
 E (G2 F2 E) | F2 z2 F2 | F4 D2 | (F2 G3 F) | F4 (=ED) | F4 D2 | (C2 B,2) z2 | (C2 F3 D) | %17
w: po- te * *|rat, ex|om- ni-|bus * *|gen- ti *|bus, stan-|tes *|an * *|
 (E2 D3 C) | (C3 =B, B,A,) | C4 |] %20
w: te * *|thro * * *|num|
V:2
 z4 G,2 | G,2 (E,F,) z (E, | B,2) C4 | (E,2 F,4 | C,4) C,2 | G,3 (F, B,F,) |[M:3/4] z (E2 D) (C2 | %7
w: Vi-|di tur * bam|* mag-|nam, *||||
w: ||||* quam|de- nu * *|me * ra|
 D) (E2 D) (C>B,) | (D2 C2) B,2 | (CG, C2 B,2) | (C6 | D4) B,2 | C2 D4 | C2 (A,F,) C,2 | C4 z2 | %15
w: ||||||||
w: * re, * ne *|mo * po-|te * * *|rat,|* ex|om- ni-|bus gen * ti-|bus,|
 (F,2 B,,2 E,G, | =A,4) A,2 | (C2 B,2) A,2 | (G,2 F,3 E,) | G,4 |] %20
w: |||||
w: stan * * *|* tes|an * te|thro * *|num|
V:3
 z4 C,2 | C,2 (E,F, G,2) | G,2 A,4 | (B,2 A,4 | G,4) C2- | C B,2 (C DC |[M:3/4] B, (C2 B,) _A,2 | %7
w: Vi-|di tur * *|bam mag-|nam, *||||
w: ||||* quam|* de- nu * *|* me * ra-|
 G,4 E,2 | D,2 F,2) G,2 | (=A,B,A,F, G,2) | (F,6 | D,4) G,2 | A,2 B,4 | (F,2 A,2 G,2) | F,4 G,2 | %15
w: ||||||||
w: re, ne-|mo * po-|te * * * *|rat,|* ex-|om- ni-|bus * *|gen- ti-|
 (A,2 B,3) (A, | F,2) D,4 | (C,2 G,2) F,2 | E,2 (D,4 | C,4) |] %20
w: |||||
w: bus * stan|* tes|an * te|thro- num||

